assets/img/i-d-ux.svg

<svg width="90" height="90" viewBox="0 0 90 90" fill="none" xmlns="http://www.w3.org/2000/svg">
<path d="M87.3542 12.5901C88.4608 12.5901 89.3578 11.6647 89.3578 10.5231C89.3578 9.3815 88.4608 8.45605 87.3542 8.45605C86.2476 8.45605 85.3506 9.3815 85.3506 10.5231C85.3506 11.6647 86.2476 12.5901 87.3542 12.5901Z" fill="#00C4D1"/>
<path d="M79.4833 7.50659C81.4212 7.50659 82.9921 5.88596 82.9921 3.88681C82.9921 1.88766 81.4212 0.267029 79.4833 0.267029C77.5455 0.267029 75.9746 1.88766 75.9746 3.88681C75.9746 5.88596 77.5455 7.50659 79.4833 7.50659Z" fill="#9D3BFF"/>
<path d="M2.8852 82.5132C4.28827 82.5132 5.42568 81.3398 5.42568 79.8923C5.42568 78.4448 4.28827 77.2714 2.8852 77.2714C1.48214 77.2714 0.344727 78.4448 0.344727 79.8923C0.344727 81.3398 1.48214 82.5132 2.8852 82.5132Z" fill="#9D3BFF"/>
<path d="M13.3545 89.2681C15.6947 89.2681 17.5918 87.311 17.5918 84.8967C17.5918 82.4824 15.6947 80.5253 13.3545 80.5253C11.0143 80.5253 9.11719 82.4824 9.11719 84.8967C9.11719 87.311 11.0143 89.2681 13.3545 89.2681Z" fill="#00C4D1"/>
<path d="M33.438 60.7846C28.3474 60.7846 24.206 55.3945 24.206 48.778V37.4341C24.1881 37.1845 24.2203 36.9338 24.3006 36.6976C24.3809 36.4614 24.5076 36.2449 24.6727 36.0615C24.8378 35.8782 25.0378 35.7319 25.2602 35.6319C25.4825 35.5318 25.7225 35.4802 25.9651 35.4802C26.2077 35.4802 26.4477 35.5318 26.6701 35.6319C26.8925 35.7319 27.0925 35.8782 27.2576 36.0615C27.4227 36.2449 27.5493 36.4614 27.6296 36.6976C27.7099 36.9338 27.7422 37.1845 27.7243 37.4341V48.778C27.7243 53.3077 30.3415 57.1451 33.4763 57.1451C36.6112 57.1451 39.2283 53.3077 39.2283 48.778V37.4341C39.2105 37.1845 39.2427 36.9338 39.323 36.6976C39.4033 36.4614 39.53 36.2449 39.6951 36.0615C39.8602 35.8782 40.0602 35.7319 40.2825 35.6319C40.5049 35.5318 40.7449 35.4802 40.9875 35.4802C41.2301 35.4802 41.4701 35.5318 41.6925 35.6319C41.9148 35.7319 42.1148 35.8782 42.2799 36.0615C42.445 36.2449 42.5717 36.4614 42.652 36.6976C42.7323 36.9338 42.7645 37.1845 42.7467 37.4341V48.778C42.67 55.3846 38.5285 60.7846 33.438 60.7846Z" fill="#9D3BFF"/>
<path d="M62.5821 60.4187C62.3059 60.4183 62.0335 60.351 61.7871 60.2222C61.5406 60.0933 61.327 59.9066 61.1633 59.6769L46.2176 38.5714C45.9418 38.178 45.8287 37.6876 45.9033 37.2081C45.9779 36.7287 46.2341 36.2994 46.6155 36.0148C46.9969 35.7302 47.4722 35.6136 47.937 35.6906C48.4017 35.7675 48.8178 36.0318 49.0936 36.4253L64.0106 57.5308C64.2051 57.8014 64.3226 58.1228 64.3497 58.4586C64.3769 58.7944 64.3126 59.1314 64.1641 59.4315C64.0156 59.7317 63.7889 59.9831 63.5094 60.1576C63.2299 60.332 62.9088 60.4224 62.5821 60.4187Z" fill="#9D3BFF"/>
<path d="M47.6361 60.4187C47.3103 60.4205 46.9904 60.3287 46.7123 60.1536C46.4342 59.9785 46.2089 59.7269 46.0616 59.4271C45.9143 59.1273 45.8508 58.791 45.8783 58.4561C45.9058 58.1212 46.0232 57.8008 46.2172 57.5308L61.1629 36.4451C61.4388 36.0516 61.8549 35.7873 62.3196 35.7104C62.7844 35.6334 63.2597 35.75 63.6411 36.0346C64.0225 36.3192 64.2786 36.7485 64.3533 37.2279C64.4279 37.7074 64.3148 38.1978 64.0389 38.5912L49.0645 59.6769C48.8999 59.9079 48.6847 60.0955 48.4364 60.2244C48.1882 60.3533 47.914 60.4199 47.6361 60.4187Z" fill="#9D3BFF"/>
<path d="M14.7535 24.0527C15.8336 24.0527 16.7092 23.1494 16.7092 22.0352C16.7092 20.9209 15.8336 20.0176 14.7535 20.0176C13.6734 20.0176 12.7979 20.9209 12.7979 22.0352C12.7979 23.1494 13.6734 24.0527 14.7535 24.0527Z" fill="#00C4D1"/>
<path d="M21.4166 24.0527C22.4967 24.0527 23.3723 23.1494 23.3723 22.0352C23.3723 20.9209 22.4967 20.0176 21.4166 20.0176C20.3365 20.0176 19.4609 20.9209 19.4609 22.0352C19.4609 23.1494 20.3365 24.0527 21.4166 24.0527Z" fill="#00C4D1"/>
<path d="M28.0699 24.0527C29.15 24.0527 30.0256 23.1494 30.0256 22.0352C30.0256 20.9209 29.15 20.0176 28.0699 20.0176C26.9899 20.0176 26.1143 20.9209 26.1143 22.0352C26.1143 23.1494 26.9899 24.0527 28.0699 24.0527Z" fill="#00C4D1"/>
<path d="M33.0545 30.5209H6.52813C6.16454 30.5209 5.81585 30.3718 5.55875 30.1066C5.30166 29.8414 5.15723 29.4817 5.15723 29.1066C5.15723 28.7315 5.30166 28.3717 5.55875 28.1065C5.81585 27.8413 6.16454 27.6923 6.52813 27.6923H33.0545C33.475 27.6912 33.8867 27.5682 34.2426 27.3374C34.5986 27.1065 34.8845 26.7772 35.0678 26.3868L40.7431 14.3505C40.8173 14.1763 40.9249 14.0193 41.0593 13.8889C41.1937 13.7586 41.3523 13.6576 41.5255 13.592C41.6986 13.5264 41.8829 13.4975 42.0671 13.507C42.2514 13.5166 42.4318 13.5645 42.5977 13.6477C42.7636 13.731 42.9116 13.8479 43.0326 13.9915C43.1537 14.1351 43.2454 14.3025 43.3023 14.4835C43.3591 14.6646 43.38 14.8556 43.3636 15.0452C43.3472 15.2348 43.2939 15.419 43.2069 15.5868L37.5411 27.623C37.1289 28.489 36.4905 29.2191 35.6978 29.7311C34.9052 30.243 33.9897 30.5165 33.0545 30.5209Z" fill="#9D3BFF"/>
<path d="M74.5084 75.7681H14.045C11.521 75.7655 9.10114 74.73 7.31642 72.8888C5.5317 71.0476 4.52793 68.5511 4.52539 65.9472V22.1637C4.52793 19.5599 5.5317 17.0634 7.31642 15.2222C9.10114 13.381 11.521 12.3455 14.045 12.3428H74.5084C77.0323 12.3455 79.4522 13.381 81.2369 15.2222C83.0216 17.0634 84.0254 19.5599 84.028 22.1637V65.9472C84.0254 68.5511 83.0216 71.0476 81.2369 72.8888C79.4522 74.73 77.0323 75.7655 74.5084 75.7681ZM14.045 16.4275C12.5666 16.43 11.1488 17.0336 10.099 18.1074C9.04914 19.1812 8.4519 20.6386 8.43677 22.1637V65.9472C8.4393 67.4809 9.03098 68.951 10.0822 70.0355C11.1334 71.1199 12.5584 71.7303 14.045 71.733H74.5084C75.9941 71.7303 77.4181 71.1196 78.4678 70.0349C79.5174 68.9501 80.107 67.48 80.107 65.9472V22.1637C80.107 20.631 79.5174 19.1608 78.4678 18.0761C77.4181 16.9913 75.9941 16.3806 74.5084 16.378L14.045 16.4275Z" fill="#00C4D1"/>
</svg>

<svg xmlns="http://www.w3.org/2000/svg" xmlns:xlink="http://www.w3.org/1999/xlink" width="90" height="90" fill="none" xmlns:v="https://vecta.io/nano"><path d="M87.354 12.6c1.107 0 2.004-.925 2.004-2.067s-.897-2.067-2.004-2.067-2.004.925-2.004 2.067.897 2.067 2.004 2.067z" fill="#00c4d1"/><path d="M79.483 7.507c1.938 0 3.5-1.62 3.5-3.62s-1.57-3.62-3.5-3.62-3.5 1.62-3.5 3.62 1.57 3.62 3.5 3.62zM2.885 82.513c1.403 0 2.54-1.173 2.54-2.62s-1.137-2.62-2.54-2.62-2.54 1.173-2.54 2.62 1.137 2.62 2.54 2.62z" fill="#9d3bff"/><path d="M13.355 89.268c2.34 0 4.237-1.957 4.237-4.37s-1.897-4.37-4.237-4.37-4.237 1.957-4.237 4.37 1.897 4.37 4.237 4.37z" fill="#00c4d1"/><g fill="#9d3bff"><path d="M33.438 60.785c-5.1 0-9.232-5.4-9.232-12.007V37.434c-.018-.25.014-.5.095-.736a1.83 1.83 0 0 1 .372-.636c.165-.183.365-.33.588-.43a1.72 1.72 0 0 1 .705-.152c.243 0 .483.052.705.152a1.76 1.76 0 0 1 .587.43 1.83 1.83 0 0 1 .372.636c.08.236.113.487.095.736v11.344c0 4.53 2.617 8.367 5.752 8.367s5.752-3.837 5.752-8.367V37.434c-.018-.25.014-.5.095-.736a1.83 1.83 0 0 1 .372-.636c.165-.183.365-.33.587-.43s.462-.152.705-.152.483.052.705.152a1.76 1.76 0 0 1 .587.43 1.83 1.83 0 0 1 .372.636c.08.236.112.487.095.736v11.344c-.077 6.607-4.218 12.007-9.3 12.007zm29.144-.365a1.72 1.72 0 0 1-.795-.197 1.78 1.78 0 0 1-.624-.545L46.218 38.57a1.87 1.87 0 0 1-.314-1.363 1.84 1.84 0 0 1 .712-1.193c.38-.285.857-.4 1.322-.324a1.76 1.76 0 0 1 1.157.735L64 57.53c.195.27.312.592.34.928a1.86 1.86 0 0 1-.186.973 1.79 1.79 0 0 1-.655.726c-.28.174-.6.265-.927.26z"/><path d="M47.636 60.42c-.326.002-.646-.1-.924-.265a1.79 1.79 0 0 1-.651-.726 1.86 1.86 0 0 1-.183-.971c.027-.335.145-.655.34-.925l14.946-21.086c.276-.393.692-.658 1.157-.735s.94.04 1.322.324a1.84 1.84 0 0 1 .712 1.193c.075.48-.038.97-.314 1.363L49.065 59.677a1.78 1.78 0 0 1-.628.547 1.72 1.72 0 0 1-.8.194z"/></g><g fill="#00c4d1"><use xlink:href="#B"/><use xlink:href="#B" x="6.663"/><use xlink:href="#B" x="13.316"/></g><path d="M33.055 30.52H6.528a1.35 1.35 0 0 1-.969-.414c-.257-.265-.402-.625-.402-1s.144-.735.402-1a1.35 1.35 0 0 1 .969-.414h26.526c.42-.001.832-.124 1.188-.355a2.29 2.29 0 0 0 .825-.951l5.675-12.036c.074-.174.182-.33.316-.462s.293-.23.466-.297.357-.095.542-.085a1.34 1.34 0 0 1 .531.141c.166.083.314.2.435.344s.213.31.27.492a1.46 1.46 0 0 1 .061.562 1.45 1.45 0 0 1-.157.542L37.54 27.623a5.13 5.13 0 0 1-1.843 2.108 4.91 4.91 0 0 1-2.643.79z" fill="#9d3bff"/><path d="M74.508 75.768H14.045c-2.524-.003-4.944-1.038-6.73-2.88s-2.788-4.338-2.79-6.942V22.164c.003-2.604 1.006-5.1 2.79-6.94s4.205-2.877 6.73-2.88h60.463c2.524.003 4.944 1.038 6.73 2.88s2.788 4.338 2.79 6.94v43.784c-.003 2.604-1.006 5.1-2.79 6.942s-4.205 2.877-6.73 2.88zm-60.463-59.34a5.53 5.53 0 0 0-3.946 1.68c-1.05 1.074-1.647 2.53-1.662 4.056v43.784a5.89 5.89 0 0 0 1.645 4.088c1.05 1.084 2.476 1.695 3.963 1.698h60.463c1.486-.003 2.9-.613 3.96-1.698a5.88 5.88 0 0 0 1.639-4.088V22.164a5.88 5.88 0 0 0-1.639-4.088c-1.05-1.085-2.474-1.695-3.96-1.698l-60.463.05z" fill="#00c4d1"/><defs ><path id="B" d="M14.754 24.053c1.08 0 1.956-.903 1.956-2.018s-.876-2.018-1.956-2.018-1.956.903-1.956 2.018.876 2.018 1.956 2.018z"/></defs></svg>
